X:1
T:Staten Island Hornpipe
L:1/8
M:4/4
I:linebreak $
K:D
V:1 treble nm="Voice" snm="Voice"
V:1
 A2 |"D" FDFG A2 A2 | dfed dcBA |"G" B2 GB"D" A2 FA |"Em" G2 E2"A" E2 AG |$"D" FDFG A2 A2 | %6
 dfed dcBA | d2 d2"A" efge |"D" f2 d2 d2 ::$ fg | a2 f2 a2 g2 | f2 d2 f2 ecAB | =c2 c2 efge | %13
 =c2 c2 efge |$ a2 fa g2 eg | f2 df ecBA | d2 d2 efge | f2 d2 d2 :| %18
